X: 20643
Q: "Pomposo"
M: C
L: 1/8
K: A
"_F."z/E/E>E |\
c2c2 c2(d>c) | c>BB2 zBBc | d2d2 d2(e>d) | c2c2 zeee |
e2(cA) e2(cA) | E4 z>EE>E | B2B2 d2B>G | (A>G)A2 z>A=G>G |\
=c3B AcBA | (AG)G2 z2e2 | e4- eB=cA | B4 z2ze2 |\
e4- eBcA | B2(3EEE E2E2 | A6 A2 | c8 |
d4 e2f2 | B4 z2f2 | e4- e>cd>B | A2A>A A2E2 |\
e4- e>cd>B | A4 z |]


